X:1
T:Oxford City
M:3/4
L:1/8
K:C
F/2-G/2| AA C2 D2| FE/2-D/2 CD z D| FA c3B/2-A/2| Gc A2 z D| FA(2c21.333334/16c21.333334/16d21.333334/16 e21.333334/16|\
d/2-c/2A/2-B/2 cd z A| GE/2-D/2 C3 D| EF D4|
